public/new/group.svg

<svg fill="none" height="22" viewBox="0 0 25 22" width="25" xmlns="http://www.w3.org/2000/svg"><path d="m19.344 0h3.6438l-7.9588 9.15739 9.3971 12.41761h-7.3834l-5.7533-7.5273-6.61637 7.5273h-3.64378l8.53411-9.7807-9.013555-11.7943h7.575225l5.22597 6.904zm-1.2945 19.3696h2.0137l-13.04089-17.30799h-2.20545z" fill="#fff"/></svg>

<svg width="25" height="22" viewBox="0 0 25 22" fill="none" xmlns="http://www.w3.org/2000/svg">
<path d="M19.344 0H22.9878L15.029 9.15739L24.4261 21.575H17.0427L11.2894 14.0477L4.67303 21.575H1.02925L9.56336 11.7943L0.549805 0H8.12503L13.351 6.904L19.344 0ZM18.0495 19.3696H20.0632L7.02231 2.06161H4.81686L18.0495 19.3696Z" fill="white"/>
</svg>
